public/tools-icons/zed.svg

<svg xmlns="http://www.w3.org/2000/svg" width="24" height="24" fill="none"><g clip-path="url(#clip0_140_101)"><path fill="#26265a" d="M2.25 1.5C2.05109 1.5 1.86032 1.57902 1.71967 1.71967C1.57902 1.86032 1.5 2.05109 1.5 2.25V18.75H0V2.25C0 1.65326 0.237053 1.08097 0.65901 0.65901C1.08097 0.237053 1.65326 0 2.25 0L22.345 0C23.347 0 23.849 1.212 23.14 1.92L10.764 14.298H14.25V12.75H15.75V14.672C15.75 14.9704 15.6315 15.2565 15.4205 15.4675C15.2095 15.6785 14.9234 15.797 14.625 15.797H9.264L6.686 18.375H18.375V9H19.875V18.375C19.875 18.7728 19.717 19.1544 19.4357 19.4357C19.1544 19.717 18.7728 19.875 18.375 19.875H5.185L2.562 22.5H21.75C21.9489 22.5 22.1397 22.421 22.2803 22.2803C22.421 22.1397 22.5 21.9489 22.5 21.75V5.25H24V21.75C24 22.3467 23.7629 22.919 23.341 23.341C22.919 23.7629 22.3467 24 21.75 24H1.655C0.653 24 0.151 22.788 0.86 22.08L13.19 9.75H9.75V11.25H8.25V9.375C8.25 9.07663 8.36853 8.79048 8.5795 8.5795C8.79048 8.36853 9.07663 8.25 9.375 8.25H14.689L17.314 5.625H5.625V15H4.125V5.625C4.125 5.22718 4.28304 4.84564 4.56434 4.56434C4.84564 4.28304 5.22718 4.125 5.625 4.125H18.815L21.438 1.5H2.25Z"/></g><defs><clipPath id="clip0_140_101"><path fill="#fff" d="M0 0H24V24H0z"/></clipPath></defs></svg>

<svg xmlns="http://www.w3.org/2000/svg" width="24" height="24" fill="none" viewBox="0 0 24 24"><g clip-path="url(#a)"><path fill="#26265a" d="M2.25 1.5a.75.75 0 0 0-.75.75v16.5H0V2.25A2.25 2.25 0 0 1 2.25 0h20.095c1.002 0 1.504 1.212.795 1.92L10.764 14.298h3.486V12.75h1.5v1.922a1.125 1.125 0 0 1-1.125 1.125H9.264l-2.578 2.578h11.689V9h1.5v9.375a1.5 1.5 0 0 1-1.5 1.5H5.185L2.562 22.5H21.75a.75.75 0 0 0 .75-.75V5.25H24v16.5A2.25 2.25 0 0 1 21.75 24H1.655C.653 24 .151 22.788.86 22.08L13.19 9.75H9.75v1.5h-1.5V9.375A1.125 1.125 0 0 1 9.375 8.25h5.314l2.625-2.625H5.625V15h-1.5V5.625a1.5 1.5 0 0 1 1.5-1.5h13.19L21.438 1.5z"/></g><defs><clipPath id="a"><path fill="#fff" d="M0 0h24v24H0z"/></clipPath></defs></svg>
